!!!COM: Luca, Olmstead
!!!CDT: 1826-1869
!!!OTL: National Anthem, Liberia
!!!ENC: Davis, Matthew J.
!!Vocal Line Only
**kern
*clefG2
*k[b-e-]
*B-:
*M4/4
=1-
4f
=2
4.b-
8b-
4b-
4b-
=3
2.b-
4f
=4
4.cc
8cc
4cc
4cc
=5
2.cc
4cc
=6
4.dd
8dd
4dd
4dd
=7
4.cc
8b-
4a
4b-
=8
2a
2g
=9
[2f
8f]
8r
4f
=10
4f
4g
4a
4b-
=11
4cc
4dd
4ee-
4cc
=12
4dd
4cc
4b-
4dd
=13
[1ff
=14
_1ff
=15
_1ff
=16
_1ff
=17
2.ff]
4dd
=18
4cc
4dd
4cc
4dd
=19
[1cc
=20
_1cc
=21
_1cc
=22
2.cc]
4r
==23
*M2/4
1r
=24
4r
8r
8f
=25
4.f
8g
=26
4.f
8g
=27
8f
8dd
8.cc
16b-
=28
4b-
8a
8g
=29
4.f
8g
=30
4.f
8g
=31
8f
8ee-
8dd
8cc
=32
4cc#
4dd
=33
4gg
8.gg
16gg
=34
4.ff
8ff
=35
4.ee-
8ee-
=36
4dd
8r
8dd
=37
8cc
8bn
8cc
8dd
=38
8ee-
8gg
8ee-
8cc
=39
4b-
4cc
=40
4.dd
8dd
=41
8cc
8bn
8cc
8dd
=42
8ee-
8gg
8ee-
8cc
=43
4b-
4a
=44
4b-
8r
==|!
*-
